X: 9
T: Shove That Pig's Foot A Little Closer To The Fire
C: Arranged by Wendy Anthony
R: reel
Z: 2009 John Chambers <jc:trillian.mit.edu>
F: http://archive.mandolinsessions.com/dec08/Anthony.html
M: 4/4
L: 1/8
K: G
|: "G"Bc BA G4 | "C"EG E2 D4 | DE G2 B3 c | "D"B2 A2 A2 z2 |  "G"Bc BA G2 D2 |
"C"EG E2 "G"D3 D | "G"DE GA "D"B3 G | "G"A2 G2 [G2B,2] zA :: "G"Bd- dB d4 | "C"ec Bc "G"d4 | "G"Bc d2 g3 d |
"D"e2 d2 d3 A |  "G"Bd- dB d2- dd | "C"ed Bc "G"d4 | "B"B3 c "D"BA GB |1 "G"A2 G2 [G2B,2] A2 :|2 "G"A2 G2 [G2B,2] z2 :|

%%sep 2 1 500

